X:3457
T:Serra efter A F Stare
T:"Pollonesse No 8"
R:Serra
O:Åbo och Eskilstuna
Z:Åke Persson, 2015-05-26
N:Jämför [[Musik/1523|+]]
M:3/4
L:1/8
K:C
|: dd A2 f2 | ed c2 d2 | efgf ed | ec A4 :|
|: fd f2 a2 | gf e2 g2 | fe fd ec | d2 d2 z2 :|
(:musicend:)

Låten heter pollonesse i notboken men är uppenbarligen inte en polonesse.
Därtill har den inga drag. Däremot har den typiska drag av serra,
den tredje dansen i den gamla polska danssviten.
(:music:)
